X:1
T:James Lumsden Esq. (Braco)
T:James Lumsden Esq. (Braco)
T:Alexander Walker
C:Alexander Walker
L:1/8
M:4/4
K:Bmin
V:1 treble 
V:1
 C | B,<(BB>)F B/B/B B2 | A>BA>E C2 B,>A, | F<BB>F B>cd>B | A>FE>C B,/B,/B, B, :| c | %6
 (d/c/B) (fB) (bB)(fB) | (c/B/A) e>A{g} a>ecA | (d/c/B) f>B b>Bf>d | c>A{g}a>c B/B/B B>c | %10
 (d/c/B) f>B b>Bf>B | (c/B/A) e>A a>Ae>c | B>dc>e d>ef<b | (a/g/)f/e/{g} a>c B/B/B B || %14

